img/logo-htmlacademy.svg

<svg width="115" height="34" viewBox="0 0 115 34" fill="none" xmlns="http://www.w3.org/2000/svg">
<g clip-path="url(#clip0)">
<path d="M0 12.8806V15.4567H2.45789V12.8806H0Z" fill="black"/>
<path d="M11.6466 4.52965C10.0864 4.52965 8.8254 5.23807 8.03461 6.26851H7.94911V0H5.9187V15.4566H7.94911V10.1541C7.94911 8.02886 9.27424 6.50466 11.2192 6.50466C13.0573 6.50466 14.1259 7.87858 14.1259 9.72478V15.4566H16.1563V9.35984C16.1563 6.41878 14.3396 4.52965 11.6466 4.52965Z" fill="black"/>
<path d="M26.6171 4.8303H21.8082V1.07349H19.7778V4.8303H17.8542V6.80531H19.7778V12.7947C19.7778 14.5121 20.7396 15.4567 22.4708 15.4567H26.6171V13.4602H22.8769C22.193 13.4602 21.8082 13.0738 21.8082 12.4083V6.80531H26.6171V4.8303Z" fill="black"/>
<path d="M41.1216 4.55103C39.4971 4.55103 38.2577 5.34532 37.5737 6.61191H37.5096C36.8897 5.3668 35.7356 4.55103 34.1541 4.55103C32.7434 4.55103 31.6747 5.30238 31.0336 6.35431H30.948V4.83011H29.0032V15.4565H31.0336V10.0038C31.0336 8.00729 32.0807 6.54752 33.6625 6.50458C35.1584 6.46164 36.0348 7.53502 36.0348 9.14507V15.4565H38.0653V9.83203C38.0653 7.44915 39.4759 6.50458 40.6941 6.50458C42.1689 6.50458 43.0452 7.53502 43.0452 9.14507V15.4565H45.0754V8.9304C45.0754 6.35431 43.6222 4.55103 41.1216 4.55103Z" fill="black"/>
<path d="M47.8271 12.7088C47.8271 14.4476 48.8103 15.4566 50.6269 15.4566H52.6359V13.4816H50.9261C50.2422 13.4816 49.8574 13.0952 49.8574 12.4297V0H47.8271V12.7088Z" fill="black"/>
<path d="M28.9048 19.7063H28.8192C28.027 18.6392 26.7425 17.8923 25.0295 17.8709C21.882 17.8282 19.6338 20.1544 19.6338 23.441C19.6338 26.749 21.9248 29.0752 25.008 29.0326C26.7637 29.0111 28.027 28.2215 28.8192 27.0903H28.9048V28.7336H30.9177V18.1697H28.9048V19.7063ZM25.3077 27.0691C23.081 27.0691 21.6679 25.4471 21.6679 23.441C21.6679 21.435 23.081 19.813 25.3077 19.813C27.4703 19.813 28.8836 21.435 28.8836 23.441C28.8836 25.4259 27.4703 27.0691 25.3077 27.0691Z" fill="black"/>
<path d="M44.2094 22.0111C43.7168 19.6208 41.5972 17.8708 38.8138 17.8708C35.4523 17.8708 33.2041 20.3251 33.2041 23.4409C33.2041 26.5567 35.4523 29.0325 38.8138 29.0325C41.5972 29.0325 43.7168 27.2397 44.2094 24.8281H42.0897C41.6615 26.1727 40.3982 27.0903 38.8352 27.0903C36.6512 27.0903 35.2379 25.447 35.2379 23.4409C35.2379 21.4349 36.6512 19.8129 38.8352 19.8129C40.4624 19.8129 41.6615 20.7733 42.0897 22.0111H44.2094Z" fill="black"/>
<path d="M55.0836 19.7063H54.998C54.2058 18.6392 52.921 17.8923 51.2081 17.8709C48.0607 17.8282 45.8125 20.1544 45.8125 23.441C45.8125 26.749 48.1036 29.0752 51.1866 29.0326C52.9425 29.0111 54.2058 28.2215 54.998 27.0903H55.0836V28.7336H57.0962V18.1697H55.0836V19.7063ZM51.4866 27.0691C49.2596 27.0691 47.8466 25.4471 47.8466 23.441C47.8466 21.435 49.2596 19.813 51.4866 19.813C53.6491 19.813 55.0622 21.435 55.0622 23.441C55.0622 25.4259 53.6491 27.0691 51.4866 27.0691Z" fill="black"/>
<path d="M68.654 19.813H68.5684C67.7761 18.6819 66.4485 17.8923 64.757 17.871C61.6739 17.8283 59.3828 20.1545 59.3828 23.4624C59.3828 26.749 61.631 29.0753 64.7784 29.0326C66.4485 29.0111 67.7761 28.2642 68.5469 27.1972H68.654V28.7336H70.6666V13.3679H68.654V19.813ZM65.0569 27.0904C62.8299 27.0904 61.4169 25.4685 61.4169 23.4624C61.4169 21.4563 62.8299 19.8343 65.0569 19.8343C67.2195 19.8343 68.6325 21.4776 68.6325 23.4624C68.6325 25.4685 67.2195 27.0904 65.0569 27.0904Z" fill="black"/>
<path d="M78.3298 17.8708C75.0753 17.8708 72.8484 20.3678 72.8484 23.4623C72.8484 26.4714 74.9468 29.0325 78.3725 29.0325C80.8562 29.0325 82.8476 27.6879 83.5542 25.447H81.4343C80.9635 26.4502 79.8287 27.0903 78.4583 27.0903C76.5313 27.0903 75.1609 25.8098 75.011 24.1666H83.7683C84.0465 20.6452 81.8413 17.8708 78.3298 17.8708ZM78.2869 19.8129C79.9784 19.8129 81.2417 20.8586 81.5628 22.3739H75.0539C75.3536 20.88 76.6169 19.8129 78.2869 19.8129Z" fill="black"/>
<path d="M98.1985 17.8921C96.5713 17.8921 95.3295 18.6817 94.6443 19.9409H94.5799C93.9591 18.703 92.8029 17.8921 91.2184 17.8921C89.8054 17.8921 88.7347 18.639 88.0924 19.6848H88.0068V18.1695H86.0583V28.7334H88.0924V23.3128C88.0924 21.328 89.1417 19.8768 90.7261 19.8341C92.2247 19.7915 93.1028 20.8585 93.1028 22.4591V28.7334H95.1368V23.1421C95.1368 20.7732 96.5499 19.8341 97.7703 19.8341C99.2477 19.8341 100.125 20.8585 100.125 22.4591V28.7334H102.16V22.2457C102.16 19.6848 100.704 17.8921 98.1985 17.8921Z" fill="black"/>
<path d="M109.441 27.0477L105.801 18.1697H103.553L108.392 29.7368L108.371 29.7794C108.028 30.6544 107.643 30.9745 106.701 30.9745H104.196V33.0019H106.701C108.542 33.0019 109.527 32.1696 110.212 30.3769L114.88 18.1697H112.803L109.441 27.0477Z" fill="black"/>
</g>
<defs>
<clipPath id="clip0">
<rect width="115" height="33.0294" fill="white"/>
</clipPath>
</defs>
</svg>

<svg width="115" height="34" fill="none" xmlns="http://www.w3.org/2000/svg"><g clip-path="url(#clip0)" fill="#000"><path d="M0 12.88v2.58h2.46v-2.58H0zM11.65 4.53c-1.56 0-2.82.7-3.62 1.74h-.08V0H5.92v15.46h2.03v-5.3c0-2.13 1.32-3.66 3.27-3.66 1.84 0 2.9 1.38 2.9 3.22v5.74h2.04v-6.1c0-2.94-1.82-4.83-4.51-4.83zM26.62 4.83H21.8V1.07h-2.03v3.76h-1.93v1.98h1.93v5.98c0 1.72.96 2.67 2.7 2.67h4.14v-2h-3.74c-.69 0-1.07-.39-1.07-1.05V6.8h4.8V4.83zM41.12 4.55c-1.62 0-2.86.8-3.55 2.06h-.06a3.6 3.6 0 00-3.36-2.06c-1.4 0-2.48.75-3.12 1.8h-.08V4.83H29v10.63h2.03V10c0-2 1.05-3.45 2.63-3.5 1.5-.04 2.37 1.04 2.37 2.65v6.3h2.04V9.84c0-2.38 1.4-3.33 2.62-3.33 1.48 0 2.36 1.04 2.36 2.65v6.3h2.03V8.94c0-2.58-1.46-4.38-3.96-4.38zM47.83 12.7c0 1.75.98 2.76 2.8 2.76h2v-1.98h-1.7c-.69 0-1.07-.38-1.07-1.05V0h-2.03v12.7zM28.9 19.7h-.08a4.64 4.64 0 00-3.8-1.83c-3.14-.04-5.39 2.28-5.39 5.57 0 3.3 2.3 5.64 5.38 5.6a4.53 4.53 0 003.8-1.95h.1v1.64h2V18.17h-2v1.54zm-3.6 7.37a3.5 3.5 0 01-3.63-3.63c0-2 1.41-3.63 3.64-3.63a3.49 3.49 0 013.57 3.63 3.5 3.5 0 01-3.57 3.63zM44.2 22.01c-.48-2.39-2.6-4.14-5.39-4.14a5.4 5.4 0 00-5.6 5.57c0 3.12 2.24 5.6 5.6 5.6 2.79 0 4.9-1.8 5.4-4.21h-2.12a3.32 3.32 0 01-3.25 2.26 3.5 3.5 0 01-3.6-3.65c0-2 1.41-3.63 3.6-3.63 1.62 0 2.82.96 3.25 2.2h2.12zM55.08 19.7H55a4.64 4.64 0 00-3.8-1.83c-3.14-.04-5.39 2.28-5.39 5.57 0 3.3 2.3 5.64 5.38 5.6a4.53 4.53 0 003.8-1.95h.1v1.64h2V18.17h-2v1.54zm-3.6 7.37a3.5 3.5 0 01-3.63-3.63c0-2 1.41-3.63 3.64-3.63a3.49 3.49 0 013.57 3.63 3.5 3.5 0 01-3.57 3.63zM68.65 19.81h-.08a4.62 4.62 0 00-3.81-1.94c-3.09-.04-5.38 2.28-5.38 5.6 0 3.28 2.25 5.6 5.4 5.56 1.67-.02 3-.77 3.77-1.83h.1v1.53h2.02V13.37h-2.02v6.44zm-3.6 7.28a3.5 3.5 0 01-3.63-3.63c0-2 1.41-3.63 3.64-3.63a3.5 3.5 0 013.57 3.63c0 2-1.41 3.63-3.57 3.63zM78.33 17.87a5.4 5.4 0 00-5.48 5.6c0 3 2.1 5.56 5.52 5.56 2.49 0 4.48-1.34 5.18-3.58h-2.12c-.47 1-1.6 1.64-2.97 1.64-1.93 0-3.3-1.28-3.45-2.92h8.76c.28-3.52-1.93-6.3-5.44-6.3zm-.04 1.94a3.2 3.2 0 013.27 2.56h-6.5a3.18 3.18 0 013.23-2.56zM98.2 17.9c-1.63 0-2.87.78-3.56 2.04h-.06a3.6 3.6 0 00-3.36-2.05 3.6 3.6 0 00-3.13 1.8h-.08v-1.52h-1.95v10.56h2.03v-5.42c0-1.98 1.05-3.43 2.64-3.48 1.5-.04 2.37 1.03 2.37 2.63v6.27h2.04v-5.59c0-2.37 1.41-3.3 2.63-3.3 1.48 0 2.36 1.02 2.36 2.62v6.27h2.03v-6.48c0-2.57-1.46-4.36-3.96-4.36zM109.44 27.05l-3.64-8.88h-2.25l4.84 11.57-.02.04c-.34.87-.73 1.2-1.67 1.2h-2.5V33h2.5c1.84 0 2.83-.83 3.51-2.62l4.67-12.21h-2.08l-3.36 8.88z"/></g><defs><clipPath id="clip0"><path fill="#fff" d="M0 0h115v33.03H0z"/></clipPath></defs></svg>
